!!!!SEGMENT: Lhe2015-Ascendens_Christus.krn
!!!id: Lhe2015
!!!AGN: Motet	
!!!SCT: Slim (1972)
!!!voices: 5
!!!COM: Jean Lheritier
!!!OTL: Ascendens Christus
**kern	**kern	**kern	**kern
*part4	*part3	*part2	*part1
*staff4	*staff3	*staff2	*staff1
*I"Bassus	*I"Tenor	*I"Altus	*I"Superius
*I'B	*I'T	*I'A	*I'S
*clefF4	*clefGv2	*clefGv2	*clefG2
*k[b-]	*k[b-]	*k[b-]	*k[b-]
*F:	*F:	*F:	*F:
*M2/1	*M2/1	*M2/1	*M2/1
*met(C|)	*met(C|)	*met(C|)	*met(C|)
!!section: Prima pars: Ascendens Christus
!!!OMD: Prima pars: Ascendens Christus
=1	=1	=1	=1
0r	0r	0G	0r
=2	=2	=2	=2
0r	0r	1A	0r
.	.	[1G	.
=3	=3	=3	=3
0r	0r	2G]	0d
.	.	2A	.
.	.	2B-y	.
.	.	2G	.
=4	=4	=4	=4
0r	0r	1c	1e
.	.	2G	[1d
.	.	[2B-y	.
=5	=5	=5	=5
0r	0D	2B-]	2d]
.	.	4A	2e
.	.	4G	.
.	.	2A	2f
.	.	2B-y	2d
=6	=6	=6	=6
1r	1E	1.c	0g
[1GG	[1D	.	.
.	.	4B-y	.
.	.	4A	.
=7	=7	=7	=7
1GG]	2D]	2B-y	1d
.	2E	2G	.
1AA	2F	1c	1r
.	2D	.	.
=8	=8	=8	=8
1.GG	1G	1.B-y	1r
.	[1D	.	[1d
2AA	.	4A	.
.	.	4G	.
=9	=9	=9	=9
2BB-y	1D]	2F	1d]
2GG	.	2G	.
1C	1r	1G	1e
=10	=10	=10	=10
0GG	0G	1r	1.d
.	.	[1D	.
.	.	.	2e
=11	=11	=11	=11
0r	1A	1D]	2f
.	.	.	2d
.	[1G	1E	[1g
=12	=12	=12	=12
0GG	2G]	1.D	1g]
.	2A	.	.
.	2B-y	.	1d
.	2G	2E	.
=13	=13	=13	=13
1AA	1.c	2F	1r
.	.	2D	.
1GG	.	1G	2r
.	2B-y	.	2d
=14	=14	=14	=14
0r	2A	1D	1f
.	1B-y	.	.
.	.	1E-X	1g
.	4A	.	.
.	4G	.	.
=15	=15	=15	=15
0D	2F	1D	1.a
.	2D	.	.
.	1F	2r	.
.	.	2A	2a
=16	=16	=16	=16
1E	1G	1c	1g
[1D	1A	1d	[1f
=17	=17	=17	=17
2D]	1B-y	1d	2f]
2E	.	.	2g
2F	2A	2c	2a
2D	2F	[2d	[2b-y
=18	=18	=18	=18
1G	1B-y	2d]	4b-]
.	.	.	4a
.	.	2e-i	1g
1D	1A	1d	.
.	.	.	2f#i
=19	=19	=19	=19
1r	1G	[0B-y	0g
[1G	1r	.	.
=20	=20	=20	=20
2G]	1.d	1B-]	0r
2D	.	.	.
1F	.	1r	.
.	2c	.	.
=21	=21	=21	=21
1G	2B-y	0r	0r
.	2B-y	.	.
1D	2A	.	.
.	2F	.	.
=22	=22	=22	=22
1C	2G	0r	0r
.	2.A	.	.
2BB-y	.	.	.
.	4G	.	.
2C	[2G	.	.
=23	=23	=23	=23
1AA	2G]	1.c	1r
.	2F#i	.	.
1GG	[1G	.	[1g
.	.	2G	.
=24	=24	=24	=24
0r	1G]	1B-y	2g]
.	.	.	2f
.	1r	1c	2e
.	.	.	2e
=25	=25	=25	=25
2r	0r	1G	2d
1G	.	.	1b-y
.	.	1d	.
2D	.	.	[2a
=26	=26	=26	=26
2F	2r	2c	4a]
.	.	.	4g
2G	1d	2B-y	1g
1D	.	1A	.
.	2A	.	2f#i
=27	=27	=27	=27
2r	2B-y	2.G	1g
1G	2B-y	.	.
.	.	4F	.
.	1A	4D	1r
.	.	4E	.
2D	.	4F	.
.	.	4G	.
=28	=28	=28	=28
2F	2D	2A	2r
2G	1B-y	1d	1g
2.D	.	.	.
.	[2A	[2d	2f
4C	.	.	.
=29	=29	=29	=29
2BB-y	4A]	2d]	1g
.	4G	.	.
2C	1G	4c	.
.	.	4B-y	.
1AA	.	1c	1a
.	2F#i	.	.
=30	=30	=30	=30
2GG	2G	2B-y	1d
2G	2B-y	1d	.
2F	2A	.	2r
2E	2G	2c	2g
=31	=31	=31	=31
2D	2A	2d	2f
2C	1c	2G	2e
1G	.	2r	2.d
.	2B-y	[2d	.
.	.	.	4e
=32	=32	=32	=32
2F	2A	2d]	2f
2E	2G	2c	1g
1D	1A	1d	.
.	.	.	2f#i
=33	=33	=33	=33
2.E-X	[0G	2B-y	0g
.	.	2G	.
8DL	.	.	.
8CJ	.	.	.
2BB-y	.	[1d	.
[2C	.	.	.
=34	=34	=34	=34
2C]	0G]	2d]	0r
2BBni	.	2d	.
1C	.	2e	.
.	.	2c	.
=35	=35	=35	=35
0r	0r	1.f	1d
.	.	.	[1a
.	.	4e	.
.	.	4d	.
=36	=36	=36	=36
0r	0r	2c	2a]
.	.	2d	2a
.	.	4G	2b-y
.	.	4A	.
.	.	4B-y	2g
.	.	4c	.
=37	=37	=37	=37
0r	0r	2d	1.b-y
.	.	2B-y	.
.	.	1e-X	.
.	.	.	4a
.	.	.	4g
=38	=38	=38	=38
0r	2r	2d	2f
.	2D	1c	2g
.	[1G	.	[1d
.	.	4B-y	.
.	.	4A	.
=39	=39	=39	=39
1GG	2G]	1B-y	0d_
.	2G	.	.
[1D	2A	1F	.
.	2F	.	.
=40	=40	=40	=40
2D]	1.B-y	0r	1d]
2D	.	.	.
2E	.	.	1r
2C	4A	.	.
.	4G	.	.
=41	=41	=41	=41
1.F	2A	1D	0r
.	2A	.	.
.	2D	[1A	.
4E	[2G	.	.
4D	.	.	.
=42	=42	=42	=42
2C	2G]	2A]	1r
2D	2F#i	2A	.
2GG	1G	2B-y	1d
[2G	.	2G	.
=43	=43	=43	=43
2G]	0r	1c	1.a
4F#i	.	.	.
4E	.	.	.
1F#i	.	2c	.
.	.	[2d	2a
=44	=44	=44	=44
1G	0r	4d]	2b-y
.	.	4c	.
.	.	4B-y	2g
.	.	4A	.
2r	.	1G	2.b-y
2GG	.	.	.
.	.	.	8aL
.	.	.	8gJ
=45	=45	=45	=45
1.D	2r	[0F	2a
.	2D	.	2a
.	[1A	.	[1d
2E	.	.	.
=46	=46	=46	=46
2F	2A]	1F]	0d]
2D	2A	.	.
[1G	2B-y	2r	.
.	2G	2G	.
=47	=47	=47	=47
2G]	2.B-y	1.d	0r
4F	.	.	.
4E	8AL	.	.
.	8GJ	.	.
2F	2A	.	.
2G	2B-y	2d	.
=48	=48	=48	=48
1C	2G	2e	1r
.	2A	2c	.
1r	1B-y	[1f	1d
=49	=49	=49	=49
0r	0F	2f]	1.a
.	.	4e	.
.	.	4d	.
.	.	2c	.
.	.	2d	2a
=50	=50	=50	=50
2r	1r	4G	2b-y
.	.	4A	.
1G	.	4B-y	2g
.	.	4c	.
.	2r	1d	2.b-y
2G	[2d	.	.
.	.	.	8aL
.	.	.	8gJ
=51	=51	=51	=51
2F	2d]	0r	2a
2D	2d	.	2a
1G	2B-y	.	1d
.	2G	.	.
=52	=52	=52	=52
2E	1c	0r	0r
2F	.	.	.
4F	2A	.	.
4E	.	.	.
4D	[2B-y	.	.
4C	.	.	.
=53	=53	=53	=53
2BB-y	4B-]	0r	0r
.	4A	.	.
1C	4G	.	.
.	4F	.	.
.	4E	.	.
.	4D	.	.
2AA	[2A	.	.
=54	=54	=54	=54
2BB-y	4A]	0r	1g
.	4G	.	.
2C	1G	.	.
1AA	.	.	1a
.	2F#i	.	.
=55	=55	=55	=55
1GG	1G	1d	1b-y
1r	1r	1e	2g
.	.	.	[2cc
=56	=56	=56	=56
0r	0r	1.f	2cc]
.	.	.	2b-y
.	.	.	1a
.	.	2d	.
=57	=57	=57	=57
2r	0r	2e	2.g
1G	.	2d	.
.	.	.	8fL
.	.	.	8eJ
.	.	4B-y	2.d
.	.	4c	.
2G	.	4d	.
.	.	4B-y	4e
=58	=58	=58	=58
2F	1r	2c	4f
.	.	.	4g
2D	.	2.d	2.a
1G	2r	.	.
.	.	4c	4g
.	[2d	2B-y	[2g
=59	=59	=59	=59
1D	2d]	1A	2g]
.	2d	.	2f#i
2r	2B-y	2G	1g
[2G	2G	[2B-y	.
=60	=60	=60	=60
2G]	1c	2B-]	1r
2F	.	2A	.
1E-X	1G	2B-y	2r
.	.	2c	2g
=61	=61	=61	=61
1D	1A	[0d	2g
.	.	.	2f
2r	[1B-y	.	2g
[2G	.	.	[2b-y
=62	=62	=62	=62
2G]	1B-]	1d]	2b-]
2F	.	.	2a
1E	1c	1G	1g
=63	=63	=63	=63
2D	2d	2r	1f
2D	1B-y	1d	.
2G	.	.	2r
2E	4A	2c	2g
.	4G	.	.
=64	=64	=64	=64
2D	2A	2d	2f
2C	1c	2G	2e
1G	.	2r	2.d
.	2B-y	[2d	.
.	.	.	4e
=65	=65	=65	=65
2F	2A	2d]	2f
2E	2G	2c	1g
1D	1A	1d	.
.	.	.	2f#i
=66	=66	=66	=66
1r	1G	1B-y	1g
1G	1B-y	2r	2r
.	.	[2d	2g
=67	=67	=67	=67
1G	1B-y	2d]	1g
.	.	2d	.
[1C	[1c	[1e	[1g
=68	=68	=68	=68
2C]	2c]	2e]	2g]
2D	2A	2d	2f
1D	1A	1d	1f
=69	=69	=69	=69
1BB-y	0r	2r	1.b-y
.	.	1d	.
1F	.	.	.
.	.	2c	2a
=70	=70	=70	=70
0r	0r	2e	2g
.	.	1d	2f
.	.	.	1e
.	.	2c#i	.
=71	=71	=71	=71
1.G	1.B-y	1d	0d
.	.	1r	.
2F	2A	.	.
=72	=72	=72	=72
2E	2G	0r	0r
2D	2F	.	.
[1G	1E	.	.
=73	=73	=73	=73
2G]	0D	1.A	1r
4F#i	.	.	.
4E	.	.	.
1F#i	.	.	[1d
.	.	2A	.
=74	=74	=74	=74
1G	0r	2B-y	2d]
.	.	2G	2e
1r	.	1d	2f
.	.	.	2d
=75	=75	=75	=75
0r	0r	2r	0a
.	.	1d	.
.	.	2e	.
=76	=76	=76	=76
0r	0r	1f	2r
.	.	.	1a
.	.	1d	.
.	.	.	2a
=77	=77	=77	=77
0r	0r	1g	2b-y
.	.	.	2g
.	.	2f	1a
.	.	2e	.
=78	=78	=78	=78
0r	0r	2.c	1.cc
.	.	4d	.
.	.	4e	.
.	.	4f	.
.	.	[2g	2b-y
=79	=79	=79	=79
0r	0r	2g]	1a
.	.	2f	.
.	.	2e	1g
.	.	4d	.
.	.	4c	.
=80	=80	=80	=80
0r	0r	2B-y	2r
.	.	1c	2g
.	.	.	1a
.	.	4B-y	.
.	.	4A	.
=81	=81	=81	=81
0r	1r	2G	2.b-y
.	.	2d	.
.	.	.	8aL
.	.	.	8b-yJ
.	2r	2e	2cc
.	[2G	[2d	[2b-y
=82	=82	=82	=82
1r	2G]	2d]	2b-]
.	2A	2c#i	4a
.	.	.	4g
2r	2B-y	1d	[1f
[2D	2A	.	.
=83	=83	=83	=83
2D]	1d	0r	1f]
2E	.	.	.
2F	2r	.	1r
2D	[2d	.	.
=84	=84	=84	=84
1G	2d]	0r	0r
.	2c	.	.
2r	2B-y	.	.
[2G	2G	.	.
=85	=85	=85	=85
2G]	1d	0r	0r
2F	.	.	.
2E	1e	.	.
2C	.	.	.
=86	=86	=86	=86
1G	2.d	0r	0r
.	4e	.	.
1A	2f	.	.
.	[2e	.	.
=87	=87	=87	=87
2F	4e]	0r	0r
.	4d	.	.
2G	1d	.	.
1E	.	.	.
.	2c	.	.
=88	=88	=88	=88
2r	2B-y	0r	0r
2.D	2.A	.	.
4E	4G	.	.
4F	4F	.	.
4G	4E	.	.
=89	=89	=89	=89
2A	2D	0r	1r
2B-y	2d	.	.
2A	2c	.	[1a
[2G	2B-y	.	.
=90	=90	=90	=90
2G]	1A	1.d	2a]
2F#i	.	.	2a
1G	1G	.	1b-y
.	.	2d	.
=91	=91	=91	=91
1r	1c	1e	1g
[1F	1r	1c	[1cc
=92	=92	=92	=92
2F]	1.c	1.f	2cc]
2G	.	.	2b-y
1A	.	.	2a
.	2c	2e	2g
=93	=93	=93	=93
1.D	1A	2d	[0f
.	.	2c	.
.	[1d	1B-y	.
2E	.	.	.
=94	=94	=94	=94
1F	2d]	1A	1f]
.	2c	.	.
1BB-y	2B-y	1d	2r
.	2A	.	[2f
=95	=95	=95	=95
1C	2G	1c	2f]
.	2.A	.	2e
1D	.	2A	1f
.	4D	.	.
.	[2d	[2B-y	.
=96	=96	=96	=96
2BB-y	2d]	4B-]	1g
.	.	4A	.
2C	4c	1G	.
.	4B-y	.	.
1AA	1c	.	1a
.	.	2F#i	.
=97	=97	=97	=97
2GG	2B-y	2G	1d
2G	2B-y	1d	.
2F	2A	.	2r
2E	2G	2c	2g
=98	=98	=98	=98
2D	2A	2d	2f
2C	1c	2G	2e
1G	.	2r	2.d
.	2B-y	[2d	.
.	.	.	4e
=99	=99	=99	=99
2F	2A	2d]	2f
2E	2G	2c	1g
1D	1A	1d	.
.	.	.	2f#i
=100	=100	=100	=100
0GG	0G	2B-y	1g
.	.	1d	.
.	.	.	2r
.	.	2d	[2b-y
=101	=101	=101	=101
0r	0r	1d	2b-]
.	.	.	2a
.	.	1B-y	2g
.	.	.	2f
=102	=102	=102	=102
0r	0r	2c	1e
.	.	2.G	.
.	.	.	2.d
.	.	4A	.
.	.	4B-y	.
.	.	4c	4e
=103	=103	=103	=103
0r	1r	4d	4f
.	.	4e	4g
.	.	2f	1a
.	1A	2e	.
.	.	[2d	4g
.	.	.	4f
=104	=104	=104	=104
1r	2A	2d]	1e
.	2A	2c#i	.
1D	2B-y	1d	1d
.	2A	.	.
=105	=105	=105	=105
2D	1d	1A	0r
2D	.	.	.
2E	2c	1r	.
2D	[2B-y	.	.
=106	=106	=106	=106
1G	2B-]	0r	1r
.	4A	.	.
.	4G	.	.
2F	2A	.	1d
[2G	[2B-y	.	.
=107	=107	=107	=107
2G]	4B-]	1.G	2d
.	4A	.	.
2F	1d	.	2d
1E	.	.	2e
.	2c#i	2G	[2g
=108	=108	=108	=108
1D	1d	2.A	2g]
.	.	.	2f
.	.	4B-y	.
1r	1A	2c	2.e
.	.	[2d	.
.	.	.	4d
=109	=109	=109	=109
1r	2A	2d]	1e
.	2A	2c#i	.
2r	2B-y	[1d	1d
2D	2A	.	.
=110	=110	=110	=110
2D	2A	1d]	1r
2D	4G	.	.
.	4F	.	.
2E	2G	1r	2r
2D	2A	.	2d
=111	=111	=111	=111
2D	1B-y	0r	2d
4C	.	.	2d
4BB-y	.	.	.
2C	1A	.	2e
2D	.	.	2d
=112	=112	=112	=112
0E	0r	2r	2d
.	.	2G	4c
.	.	.	4B-y
.	.	2G	2c
.	.	2G	2c
=113	=113	=113	=113
2D	1r	2A	1d
2GG	.	1G	.
[1D	1A	.	2r
.	.	4F#i	2d
.	.	4E	.
=114	=114	=114	=114
2D]	2A	1F#i	2d
2D	2A	.	2d
2G	2B-y	2G	2.d
2F	2A	[2d	.
.	.	.	4e
=115	=115	=115	=115
1D	2A	2d]	4f
.	.	.	4g
.	4G	2d	2.a
.	4F	.	.
1E	2G	2B-y	.
.	.	.	4g
.	2G	2c	[2g
=116	=116	=116	=116
1D	1A	1d	2g]
.	.	.	2f#i
1GG	1G	1B-y	[1g
=117	=117	=117	=117
2r	1.B-y	2r	0g]
1G	.	1d	.
2E	2G	2c	.
=118	=118	=118	=118
2F	2A	2d	0r
2G	2B-y	2e	.
2.A	2.c	2.f	.
4G	4B-y	4e	.
=119	=119	=119	=119
2F	2A	2d	2r
2E	2G	2c	1g
1D	2A	2d	.
.	2A	[2f	2f
=120	=120	=120	=120
0r	1c	2f]	2.g
.	.	2e	.
.	.	.	4a
.	2B-y	2d	[1b-y
.	2G	[2g	.
=121	=121	=121	=121
0r	2.d	2g]	2b-]
.	.	2f	2a
.	4c	.	.
.	2B-y	2d	1g
.	2c	2e	.
=122	=122	=122	=122
1D	2A	4d	1f
.	.	4c	.
.	1d	4B-y	.
.	.	4A	.
[1G	.	1B-y	[1g
.	2c	.	.
=123	=123	=123	=123
2G]	2B-y	2r	0g]
2F	2A	1c	.
2E	2G	.	.
2D	2F	2B-y	.
=124	=124	=124	=124
2C	4E	2A	1r
.	4D	.	.
2BB-y	1G	2G	.
1AA	.	2.c	2r
.	2F#i	.	2a
.	.	4d	.
=125	=125	=125	=125
2GG	2G	2B-y	2b-y
2G	2E	2c	2g
2G	2D	2d	1a
2F	2A	2d	.
=126	=126	=126	=126
2G	2B-y	2d	2r
2E	2G	2c	2g
1D	1A	2d	2g
.	.	2A	2f
=127	=127	=127	=127
2GG	2r	2B-y	1g
2GG	2G	2G	.
2D	2G	1A	1d
2D	2F	.	.
=128	=128	=128	=128
4GG	2G	1B-y	2.d
4AA	.	.	.
4BB-y	2D	.	.
4C	.	.	4e
4D	2.d	2A	4f
4E	.	.	4g
2F	.	[2d	[2a
.	4c	.	.
=129	=129	=129	=129
2G	2B-y	2d]	4a]
.	.	.	4g
2E	4A	2c#i	1g
.	4G	.	.
1D	1A	[1dl	.
.	.	.	2f#i
=	=	=	=
00GG	00G	00d]	00g
=||	=||	=||	=||
*M2/1	*M2/1	*M2/1	*M2/1
*met(C|)	*met(C|)	*met(C|)	*met(C|)
!!section: Secunda pars: Ascendo ad patrem
!!!OMD: Secunda pars: Ascendo ad patrem
0r	0r	0r	1d
.	.	.	[1a
=130	=130	=130	=130
0r	0r	1r	2a]
.	.	.	2a
.	.	1G	2b-y
.	.	.	2g
=131	=131	=131	=131
0r	0r	1.d	1b-y
.	.	.	1a
.	.	2d	.
=132	=132	=132	=132
0r	0r	2e	1g
.	.	2c	.
.	.	1e	2r
.	.	.	2g
=133	=133	=133	=133
0r	0r	1d	2a
.	.	.	2f
.	.	1c	2a
.	.	.	[2g
=134	=134	=134	=134
0r	1r	2r	2g]
.	.	2c	4f
.	.	.	4e
.	1D	2d	2f
.	.	2f	[2a
=135	=135	=135	=135
0r	1.A	2e	2a]
.	.	1d	4g
.	.	.	4f
.	.	.	1e
.	2A	2c#i	.
=136	=136	=136	=136
1GG	2B-y	[0d	2d
.	2G	.	2g
[1D	1B-y	.	2f
.	.	.	[2g
=137	=137	=137	=137
2D]	1A	1d]	2g]
2D	.	.	2f#i
2E-X	1G	2r	[1g
2C	.	2c	.
=138	=138	=138	=138
1E-i	2r	2B-y	1g]
.	2G	1c	.
1D	2A	.	1r
.	2F	2Bni	.
=139	=139	=139	=139
1C	2A	1c	0r
.	2.G	.	.
2r	.	1r	.
.	4A	.	.
[2G	4B-y	.	.
.	4c	.	.
=140	=140	=140	=140
2G]	4d	0r	1r
.	4B-y	.	.
2E	2.c	.	.
2F	.	.	[1a
.	4B-y	.	.
[2G	4A	.	.
.	4G	.	.
=141	=141	=141	=141
2G]	1A	1r	2a]
2F#i	.	.	2a
1G	1G	[1d	1b-y
=142	=142	=142	=142
0r	0r	2d]	2a
.	.	2d	2f
.	.	2e	2g
.	.	2d	[2f
=143	=143	=143	=143
0r	1D	2.f	4f]
.	.	.	4g
.	.	.	4a
.	.	8eL	4f
.	.	8dJ	.
.	2E	2c	2g
.	2F	2A	[2a
=144	=144	=144	=144
1r	1G	1B-y	2a]
.	.	.	2g
2r	2D	1A	2a
2D	2d	.	2f
=145	=145	=145	=145
2E	2c	1r	2g
2F	2A	.	1a
1G	1B-y	[1d	.
.	.	.	2g
=146	=146	=146	=146
1D	1A	2d]	2.f
.	.	2d	.
.	.	.	8eL
.	.	.	8dJ
1A	2r	1e	1c
.	[2A	.	.
=147	=147	=147	=147
1D	2A]	2d	2r
.	2A	2.f	2d
1r	1B-y	.	1d
.	.	4e	.
.	.	[2d	.
=148	=148	=148	=148
1r	1.A	2d]	1e
.	.	2c#i	.
[1D	.	1d	4d
.	.	.	4e
.	2B-y	.	4f
.	.	.	4g
=149	=149	=149	=149
2D]	2A	2r	2a
2D	2F	1d	1b-y
1E	1G	.	.
.	.	2c	4a
.	.	.	4g
=150	=150	=150	=150
1D	2A	1d	1f
.	1d	.	.
1A	.	1e	2r
.	2c#i	.	2a
=151	=151	=151	=151
1D	1d	2.f	1a
.	.	4e	.
1r	1G	4d	1b-y
.	.	4c	.
.	.	[2d	.
=152	=152	=152	=152
1.D	1r	2d]	1a
.	.	4c	.
.	.	4B-y	.
.	1d	1A	1f
2D	.	.	.
=153	=153	=153	=153
1E-X	2c	2r	1g
.	1B-y	2G	.
2D	.	2.d	2f
2G	4A	.	2b-y
.	4G	4B-y	.
=154	=154	=154	=154
2F	2A	2c	2a
2D	2B-y	1d	2f
1E	1G	.	1g
.	.	2c	.
=155	=155	=155	=155
2.D	2r	2d	2.f
.	2d	2B-y	.
4E	.	.	4g
2F	2c	2A	2a
2BB-y	2B-y	2d	[2b-y
=156	=156	=156	=156
1E-i	1G	2B-y	4b-]
.	.	.	4a
.	.	2c	1g
1D	1A	[1d	.
.	.	.	2f#i
=157	=157	=157	=157
0GG	2r	1d]	[0g
.	1B-y	.	.
.	.	2r	.
.	2G	[2B-y	.
=158	=158	=158	=158
2r	2.B-y	2B-]	0g]
1G	.	2G	.
.	4c	.	.
.	2d	2B-y	.
2E	[2c	2c	.
=159	=159	=159	=159
2F	2c]	1d	1r
2G	2B-y	.	.
[1C	2.c	1e	[1g
.	8B-yL	.	.
.	8AJ	.	.
=160	=160	=160	=160
1C]	2G	1.c	2g]
.	2.A	.	2c
1r	.	.	1g
.	4G	.	.
.	[2G	2B-y	.
=161	=161	=161	=161
1r	2G]	1A	1a
.	2F#i	.	.
2r	1G	4G	1b-y
.	.	4A	.
[2G	.	4B-y	.
.	.	4c	.
=162	=162	=162	=162
2G]	0r	2d	1.g
2C	.	1e	.
1G	.	.	.
.	.	[2d	2f
=163	=163	=163	=163
1A	0r	2d]	1e
.	.	2c#i	.
1B-y	.	1d	2d
.	.	.	[2dd
=164	=164	=164	=164
1.G	1.d	1B-y	4dd]
.	.	.	4cc
.	.	.	4b-y
.	.	.	4a
.	.	1r	2b-y
2F	2A	.	[2a
=165	=165	=165	=165
1E	1c	1G	2a]
.	.	.	1g
1D	1d	1A	.
.	.	.	2f#i
=166	=166	=166	=166
0r	1e	2.c	2g
.	.	.	1g
.	.	4d	.
.	[1c	4e	.
.	.	4f	.
.	.	2g	2c
=167	=167	=167	=167
0r	2c]	2e	1g
.	2B-y	1g	.
.	1A	.	1a
.	.	2f	.
=168	=168	=168	=168
1.G	2G	2d	1b-y
.	2.d	2.g	.
.	.	.	[1g
.	4c	4f	.
2C	[2c	4e	.
.	.	4d	.
=169	=169	=169	=169
1G	4c]	2e	2g]
.	4B-y	.	.
.	4B-y	1d	2f
.	8AL	.	.
.	8B-yJ	.	.
1A	1c	.	1e
.	.	2c#i	.
=170	=170	=170	=170
1B-y	2.G	[0d	2d
.	.	.	2.dd
.	4A	.	.
[1G	2B-y	.	.
.	.	.	4cc
.	4G	.	[2b-y
.	4A	.	.
=171	=171	=171	=171
2G]	4B-y	1d]	2b-]
.	4c	.	.
2F	1d	.	2a
1E	.	1G	1g
.	2c#i	.	.
=172	=172	=172	=172
[0D	[0d	2r	0f
.	.	2A	.
.	.	2A	.
.	.	2A	.
=173	=173	=173	=173
0D]	1d]	2B-y	2r
.	.	2A	2a
.	1r	[1d	2a
.	.	.	2a
=174	=174	=174	=174
0r	0r	2d]	2b-y
.	.	2c	2a
.	.	2B-y	[1dd
.	.	2G	.
=175	=175	=175	=175
0r	0r	1.g	2dd]
.	.	.	2cc
.	.	.	2b-y
.	.	2f	2a
=176	=176	=176	=176
0r	2r	2e	2g
.	2B-y	1d	2f
.	2G	.	1e
.	2A	2c#i	.
=177	=177	=177	=177
2r	2B-y	2d	2d
2A	2.c	2A	1a
2F	.	1r	.
.	4A	.	.
2G	[2d	.	4g
.	.	.	4f
=178	=178	=178	=178
1A	2d]	2r	1e
.	2c#i	2A	.
1D	1d	2A	[1f
.	.	2A	.
=179	=179	=179	=179
2D	1A	1.d	1f]
2D	.	.	.
[1G	1r	.	1d
.	.	2c	.
=180	=180	=180	=180
2G]	1B-y	2B-y	2d
2F	.	1A	2d
2E	2B-y	.	[1g
2E	2c	2G	.
=181	=181	=181	=181
1D	1.d	2A	2g]
.	.	2A	2f
1r	.	2A	2e
.	2c	2A	2e
=182	=182	=182	=182
1r	2B-y	1.d	4d
.	.	.	4e
.	2B-y	.	4f
.	.	.	4d
2r	1A	.	1e
2A	.	2c	.
=183	=183	=183	=183
2F	1r	2A	1d
2G	.	2B-y	.
2C	1G	1c	2r
2E	.	.	2g
=184	=184	=184	=184
2F	2A	1r	2f
2G	2B-y	.	2d
2C	2G	2r	1e
2C	2c	2G	.
=185	=185	=185	=185
2F	2c	2A	2r
2D	2B-y	2F	2f
1C	2c	2G	2e
.	2A	[2c	2c
=186	=186	=186	=186
2r	2G	2c]	1d
2G	2.d	2B-y	.
2E	.	1c	2e
.	4c	.	.
2C	[2c	.	2g
=187	=187	=187	=187
1G	2c]	2d	2g
.	2B-y	2.G	2g
2C	2c	.	2.g
.	.	4A	.
[2G	2d	4B-y	.
.	.	4c	4a
=188	=188	=188	=188
2G]	2B-y	2d	2b-y
2F	2.c	2A	2.a
1E	.	2B-y	.
.	4B-y	.	4g
.	4A	2c	[2g
.	4G	.	.
=189	=189	=189	=189
1D	1A	1d	2g]
.	.	.	2f#i
1GG	2r	[1B-y	[1g
.	[2d	.	.
=190	=190	=190	=190
1.G	2d]	1B-]	1g]
.	2c	.	.
.	2B-y	1r	1r
2F	2A	.	.
=191	=191	=191	=191
2E	2G	0r	0r
2D	2F	.	.
2C	1G	.	.
2BB-y	.	.	.
=192	=192	=192	=192
2C	2A	0r	0r
1D	2B-y	.	.
.	2A	.	.
2F	[2d	.	.
=193	=193	=193	=193
1E	2d]	0r	0r
.	2c#i	.	.
2D	[1d	.	.
2G	.	.	.
=194	=194	=194	=194
2F	1d]	0r	0r
2.G	.	.	.
.	2r	.	.
4A	.	.	.
4B-y	2d	.	.
4G	.	.	.
=195	=195	=195	=195
2A	2c	0r	0r
2B-y	2.d	.	.
2G	.	.	.
.	4e	.	.
[2A	4f	.	.
.	4d	.	.
=196	=196	=196	=196
4A]	2e	0r	0r
4G	.	.	.
4F	2.d	.	.
4E	.	.	.
2D	.	.	.
.	4c	.	.
[2G	2B-y	.	.
=197	=197	=197	=197
2G]	1A	1r	1.a
2F#i	.	.	.
1G	1B-y	[1d	.
.	.	.	2g
=198	=198	=198	=198
0r	1A	2d]	2f
.	.	2c	2e
.	1r	2B-y	2d
.	.	2A	2c
=199	=199	=199	=199
0r	0r	2G	1d
.	.	2F	.
.	.	2G	2e
.	.	2A	[2f
=200	=200	=200	=200
0r	1r	4B-y	2f]
.	.	4A	.
.	.	1d	4e
.	.	.	4d
.	[1A	.	1e
.	.	2c#i	.
=201	=201	=201	=201
1.D	2A]	1d	0d
.	2G	.	.
.	2F	2r	.
2C	2E	[2G	.
=202	=202	=202	=202
2BB-y	2D	2G]	0r
2AA	2C	2F	.
2GG	1G	1E	.
[2G	.	.	.
=203	=203	=203	=203
2G]	1A	1D	1.a
2F#i	.	.	.
1G	1B-y	[1d	.
.	.	.	2g
=204	=204	=204	=204
1.D	2.A	2d]	2f
.	.	2c	2e
.	4G	.	.
.	2F	2B-y	2d
2C	[2G	2c	[2e
=205	=205	=205	=205
1BB-y	4G]	1G	4e]
.	4F	.	4d
.	4E	.	1d
.	4D	.	.
1AA	1E	2.A	.
.	.	.	2c#i
.	.	4G	.
=206	=206	=206	=206
1r	0D	2F	[0d
.	.	1G	.
1A	.	.	.
.	.	2F#i	.
=207	=207	=207	=207
1.B-y	1r	1G	0d]
.	1G	1r	.
2A	.	.	.
=208	=208	=208	=208
1G	1.B-y	1d	0r
1F	.	[1f	.
.	2A	.	.
=209	=209	=209	=209
1.B-y	1G	2f]	0r
.	.	2e	.
.	1F	2d	.
2A	.	2c	.
=210	=210	=210	=210
2G	1.d	2B-y	0r
2F	.	2A	.
1E	.	1G	.
.	2c	.	.
=211	=211	=211	=211
2r	2.B-y	1d	0r
1D	.	.	.
.	8AL	.	.
.	8GJ	.	.
.	1A	1r	.
2F	.	.	.
=212	=212	=212	=212
2E	1G	0r	0r
2C	.	.	.
1E	2r	.	.
.	[2G	.	.
=213	=213	=213	=213
2.G	2G]	0r	0r
.	2B-y	.	.
4F	.	.	.
2D	2A	.	.
[2F	2F	.	.
=214	=214	=214	=214
2F]	1A	0r	0r
4E	.	.	.
4D	.	.	.
2E	2.c	.	.
4C	.	.	.
4D	4B-y	.	.
=215	=215	=215	=215
4E	1G	0r	0r
4F	.	.	.
1G	.	.	.
.	1A	.	.
2F#i	.	.	.
=216	=216	=216	=216
1G	2G	1d	0r
.	1B-y	.	.
[1D	.	[1f	.
.	4A	.	.
.	4G	.	.
=217	=217	=217	=217
1D]	1F	2f]	1a
.	.	2f	.
1r	1r	2e	[1cc
.	.	[2f	.
=218	=218	=218	=218
0r	0r	2f]	2cc]
.	.	2e	2cc
.	.	1d	1b-y
=219	=219	=219	=219
0r	0r	1c	1.cc
.	.	2r	.
.	.	[2d	2b-y
=220	=220	=220	=220
2r	1r	2d]	1a
1D	.	2f	.
.	1A	2d	1f
2F	.	2c	.
=221	=221	=221	=221
2E	1c	1e	2r
2C	.	.	1g
1G	2B-y	2.d	.
.	2G	.	2b-y
.	.	4e	.
=222	=222	=222	=222
1.F	1d	1f	2a
.	.	.	2f
.	2.c	2c	1a
2F	.	[2f	.
.	4B-y	.	.
=223	=223	=223	=223
0C	2A	2f]	2.cc
.	2G	4e	.
.	.	4d	4b-y
.	[1c	1e	2a
.	.	.	2g
=224	=224	=224	=224
1F	2c]	2.f	1a
.	4B-y	.	.
.	4A	4e	.
1G	2.B-y	1d	2.g
.	4A	.	4f
=225	=225	=225	=225
1C	2G	2c	4e
.	.	.	4f
.	2c	2e	4g
.	.	.	4e
2D	2B-y	2d	2f
2E	2G	2c	[2g
=226	=226	=226	=226
1D	1A	1.d	2g]
.	.	.	2f#i
2r	1G	.	1g
[2G	.	2B-y	.
=227	=227	=227	=227
2G]	1d	1B-y	0r
2F	.	.	.
2E	2c	2r	.
2D	2B-y	[2d	.
=228	=228	=228	=228
1F	2A	2d]	2r
.	2A	2c	1a
1G	1d	2B-y	.
.	.	2G	2g
=229	=229	=229	=229
0D	1d	1B-y	2f
.	.	.	2d
.	2r	1A	1f
.	[2d	.	.
=230	=230	=230	=230
1E	2d]	0G	1g
.	2c	.	.
2r	2B-y	.	[1d
[2G	2G	.	.
=231	=231	=231	=231
2G]	2B-y	2r	1d]
2F	2A	1d	.
2E	1G	.	2r
2E	.	2c	[2g
=232	=232	=232	=232
1D	1d	2B-y	2g]
.	.	2A	2f
1G	1r	2B-y	2e
.	.	2B-y	2d
=233	=233	=233	=233
1D	1.d	1A	1f
[1G	.	1r	1g
.	2c	.	.
=234	=234	=234	=234
2G]	2B-y	1r	1d
2F	2A	.	.
2E	2G	2r	1r
2D	[2B-y	[2d	.
=235	=235	=235	=235
1E	2B-]	2d]	2r
.	4A	2c	1g
.	4G	.	.
1D	2.d	2.B-y	.
.	.	.	2f
.	4B-y	8AL	.
.	.	8GJ	.
=236	=236	=236	=236
0r	2c	2A	2e
.	1d	2B-y	2d
.	.	1A	1e
.	2c#i	.	.
=237	=237	=237	=237
1.G	0d	2B-y	2d
.	.	4G	1b-y
.	.	4A	.
.	.	4B-y	.
.	.	4c	.
2F	.	4d	2a
.	.	4B-y	.
=238	=238	=238	=238
2E	2G	2c	2g
2D	1B-y	1d	2f
1E	.	.	1g
.	4A	2c#i	.
.	4G	.	.
=239	=239	=239	=239
0D	1B-y	1d	1f
.	1A	2r	2r
.	.	2d	2f
=240	=240	=240	=240
0r	0r	2e	2g
.	.	2d	2a
.	.	2.f	4d
.	.	.	4e
.	.	.	4f
.	.	4e	4g
=241	=241	=241	=241
0r	1r	4d	2a
.	.	4c	.
.	.	2d	1b-y
.	2r	2G	.
.	2B-y	[2g	4a
.	.	.	4g
=242	=242	=242	=242
1r	2c	2g]	2.a
.	2d	2f	.
.	.	.	8gL
.	.	.	8aJ
2r	2G	4d	2b-y
.	.	4e	.
2F	[2d	4f	2a
.	.	4d	.
=243	=243	=243	=243
2G	2d]	1e	2b-y
2A	2c	.	2.a
2D	2.d	2f	.
.	.	.	4g
2F	.	[2d	4f
.	4c	.	4e
=244	=244	=244	=244
2G	2B-y	2d]	2d
2E	4A	2c#i	1g
.	4G	.	.
1D	1A	1d	.
.	.	.	2f#i
=245	=245	=245	=245
1G	2G	2r	1g
.	2B-y	2d	.
1r	2c	2e	1a
.	2d	2f	.
=246	=246	=246	=246
0r	4G	2.d	1b-y
.	4A	.	.
.	4B-y	.	.
.	4c	4e	.
.	4d	2f	1a
.	4e	.	.
.	4f	2d	.
.	4d	.	.
=247	=247	=247	=247
2r	2e	2r	2g
2F	1d	2A	2f
2G	.	2B-y	1e
2A	2c#i	2A	.
=248	=248	=248	=248
1D	1.d	2A	2d
.	.	2f	2a
2G	.	2g	2b-y
2D	2d	[2f	[2a
=249	=249	=249	=249
2F	2c	4f]	4a]
.	.	4e	4g
2G	2B-y	4d	1g
.	.	4c	.
1D	1A	1d	.
.	.	.	2f#i
=250	=250	=250	=250
00GGl	00Gl	00dl	00gl
==	==	==	==
*-	*-	*-	*-
!!!system-decoration: [*]
!!!RDF**kern: i = editorial accidental
!!!RDF**kern: l = terminal long
!!!ENC: Benjamin Ory
!!!END: 2021/7/30
!!!EED: Benjamin Ory
!!!EEV: 2021/07/30
!!!YEC: Copyright 2021 Benjamin Ory, All Rights Reserved
!!!ONB: Translated from MusicXML on 2021/07/30
